X:216
T:Blest Be The Tie That Binds
%%stretchlast false
M:3/4
L:1/4
K:Eb clef=C1
"^I"[E,,B,,EG] [E,,B,,EG] [E,,G,,B,E] | [E,,B,,EG] "^V"[B,,DF] [B,,B,D] | "^V7³"[A,,B,,DF] "^I¹"[G,,B,,B,E] "^IV"[A,,C,CE] | "^♯vi"[B,,_DE] "^IV"[A,,CE] "^vi+"[A,,C] | "^IV¹"[C,,A,,A,E]/ [D,,A,,A,E]/ "^I"[E,,G,,B,E] [E,,G,,B,] | "^I¹"[G,,B,E] "^V"[B,,B,D]2 | [B,,DF] [B,,D,DF] [B,,B,D] | "^V7¹"[D,,A,,B,F] "^I"[E,,G,,B,E] [E,,B,,EG] | "^I¹"[G,,B,,EB] "^V"[B,,D,FB] [B,,DF] | "^V7¹"[D,,B,,FA] "^I"[E,,B,,EG] "^I¹"[G,,B,,EB] | "^IV"[A,,E,Ec] "^I¹"[G,,E,EB] "^I"[E,,E,EG] | "^ii7"[F,,C,EA] "^I²"[B,,EG] "^vi7³"[B,,CE] | "^V7³"[A,,B,,DF] "^I"[E,,G,,B,E]2 |]
